**kern	**kern	**dynam
*part1	*part1	*part1
*staff2	*staff1	*
*I"Piano	*	*
*clefF4	*clefG2	*
*k[]	*k[]	*
=1	=1	=1
4AA 4E 4A	4c 4e	.
4AA 4E 4A	4c 4e	.
4AA 4E 4A	4c 4e	>
=	=	=
4AA 4D 4A	4c 4d 4f#X	.
4AA 4D 4A	4c 4d 4f#	.
4AA 4D 4A	4c 4d 4f#	.
=	=	=
4BB 4D 4G	4B 4d 4g	]
!	!LO:TX:b:i:t=dim.	!
4C#X	4A 4e 4g	.
4E	4A 4c#X 4g	.
=	=	=
*^	*	*
2A 2cn	4D	(4g	.
.	4D	8f#X)	.
.	.	8r	.
4F#X 4c	4DD	4d	.
=	=	=	=
4G 4B	4GG 4D	2.d	.
4G 4B	4GG 4D	.	.
4G 4B	4GG 4D	.	.
*v	*v	*	*
=	=	=
2.GG^	8a 8dd 8ff	pp
.	8r	.
.	4f 4a 4dd	.
.	4d 4f 4a	.
=	=	=
*^	*	*
!	!	!	!LO:DY:a
4A	2.GG	2d 2f	p
4Bn	.	.	.
4c>	.	4e	.
*v	*v	*	*
=	=	=
*-	*-	*-
!!!system-decoration: {(s1,s2)}
!!!RDF**kern: > = above
